X:1
T:Kongesang
T:Kongesang
T:Bind 1, No. 4
T:G. B. Lully
T:N. Fogtmann
C:G. B. Lully
Z:N. Fogtmann
%%score [ 1 2 3 4 ]
L:1/8
Q:1/4=72
M:3/4
K:C
V:1 treble-8 nm="T1"
V:2 treble-8 nm="T2"
V:3 bass nm="B1"
V:4 bass nm="B2"
V:1
"^Andante maestoso"!mf! c2 c2 d2 | B3 c d2 |!<(! e2 e2!<)! f2 | e3!>(! d c2!>)! | d2 c2 B2 | %5
w: 1.Gud sign vor|Kon- ge god,|giv ham i|Fa- rer Mod,|giv ham din|
w: 2.Højt svær- ger|Nor- ges Mand,|hver i sit|Kald, sin Stand,|Tro- skab sin|
 c4 z2 |:!f! g2 g2 g2 | g3 f e2 | f2 f2 f2 | f3 e d2 |!mf! e2 (fe) (d!<(!c) | e3!<)! f g2 | %12
w: Fred!|Giv du ham|vi- se Raad,|styrk ham i|al hans Daad,|styrt Svig _ og _|Ond- skab kaad|
w: Drot.|Tro- fast i|Liv og Død,|tap- per i|Krig og Nød,|al- tid _ vort _|Nor- ge lød|
 (a!>(!f) e2!>)! d2 | c4 z2 :| %14
w: i _ Stø- vet|ned!|
w: Gud _ og sin|Drot.|
V:2
!mf! G2 G2 A2 | G3 A B2 |!<(! c2 c2!<)! c2 | c3!>(! B A2!>)! | A2 G2 G2 | G4 z2 |:!f! e2 e2 e2 | %7
w: 1.Gud sign vor|Kon- ge god,|giv ham i|Fa- rer Mod,|giv ham din|Fred!|Giv du ham|
w: 2.Højt svær- ger|Nor- ges Mand,|hver i sit|Kald, sin Stand,|Tro- skab sin|Drot.|Tro- fast i|
 e3 d c2 | d2 d2 d2 | d3 c B2 |!mf! c2 c2 c2 | c3 c c2 | c2 c2 B2 | G4 z2 :| %14
w: vi- se Raad,|styrk ham i|al hans Daad,|styrt Svig og|Ond- skab kaad|i Stø- vet|ned!|
w: Liv og Død,|tap- per i|Krig og Nød,|al- tid vort|Nor- ge lød|Gud og sin|Drot.|
V:3
!mf! E,2 G,2 A,2 | G,3 G, G,2 |!<(! G,2 A,2!<)! A,2 | G,3!>(! F, E,2!>)! | F,2 E,2 D,2 | E,4 z2 |: %6
w: 1.Gud sign vor|Kon- ge god,|giv ham i|Fa- rer Mod,|giv ham din|Fred!|
w: 2.Højt svær- ger|Nor- ges Mand,|hver i sit|Kald, sin Stand,|Tro- skab sin|Drot.|
!f! C2 C2 C2 | C3 G, G,2 | G,2 G,2 G,2 | G,3 G, G,2 |!mf! G,2 (A,G,) (F,E,) | G,3 G, G,2 | %12
w: Giv du ham|vi- se Raad,|styrk ham i|al hans Daad,|styrt Svig _ og _|Ond- skab kaad|
w: Tro- fast i|Liv og Død,|tap- per i|Krig og Nød,|al- tid _ vort _|Nor- ge lød|
 (F,A,) G,2 F,2 | E,4 z2 :| %14
w: i _ Stø- vet|ned!|
w: Gud _ og sin|Drot.|
V:4
!mf! C,2 E,2 F,2 | G,3 G,, G,,2 |!<(! C,2 A,,2!<)! F,,2 | G,,3!>(! ^G,, A,,2!>)! | F,,2 G,,2 G,,2 | %5
w: 1.Gud sign vor|Kon- ge god,|giv ham i|Fa- rer Mod,|giv ham din|
w: 2.Højt svær- ger|Nor- ges Mand,|hver i sit|Kald, sin Stand,|Tro- skab sin|
 C,4 z2 |:!f! C,2 E,2 G,2 | C3 C, C,2 | G,,2 B,,2 D,2 | G,3 G,, G,,2 |!mf! C,2 C,2 C,2 | %11
w: Fred!|Giv du ham|vi- se Raad,|styrk ham i|al hans Daad,|styrt Svig og|
w: Drot.|Tro- fast i|Liv og Død,|tap- per i|Krig og Nød,|al- tid vort|
 C,3 D, E,2 | F,2 G,2 G,,2 | C,4 z2 :| %14
w: Ond- skab kaad|i Stø- vet|ned!|
w: Nor- ge lød|Gud og sin|Drot.|

